X: 1599
T: Ulster Hornpipe, The
R:hornpipe
N:"Collected by J. O'Neill"
B:O'Neill's 1599
Z:Transcribed by Michael Hogan
M:C|
L:1/8
K:G
(dc) | BGFG DGBd | cBAG FAGF | Ggfe dBAG | B2 A2 A2 (dc) |
BGFG DGBd | cBAG FAGF | Ggfe dcAc | B2 G2 G2 :|
|: (dc) | BGBd gabg | abc'a gfed | egfa gbac' | bgfg e^def |
gbdg egBd | cBAG FAGF | Ggfe dcAc | B2 G2 G2 (dc) |
BGBd gabg | abc'a gfed (3efg (3fga (3gab (3abc' | bgfg e^def |
gbdg egBd | cBAG FAGF | Ggfe dcAc | B2 G2 G2 ||


